X:1
T:Title
%%score { ( 1 3 ) | ( 2 4 ) }
L:1/8
M:3/4
K:D
V:1 treble nm="Grand Piano"
V:3 treble 
V:2 bass 
V:4 bass 
V:1
 z2 z2[Q:1/4=100] D>F | [FA]3 [FA] [FA]2 | [A,DF]4 [DFA]2 | [DGB]4 [DGB]>[DGB] | [DFA]4 [A,DF]2 | %5
 [DFA]4 [CGA]>[CGA] | [DA]4 [A,FA]2 | [A,EA]2 [A,EG]2 [A,DF]2 | [CE]4 [CA]>[CG] | F4 F>E | %10
 D D3 [FA]2 | B3 B B2 |[M:2/4] [FA]4 |[M:1/4] A2 |[M:3/4] d4 B>B | A F3 z E | %16
 [A,DF] [A,DF]3 [G,CE]2 | [F,D]6 | [DFA]4 [A,DF]2 | [F,A,D]6 | [Ad]4 [DGB]2 | [DFA]4 [F,D]>[A,DF] | %22
 [DFA]4 [CGA]>[CGA] | [DFA]4 [A,FA]2 | [A,EA]2 [A,EG]2 [A,DF]2 | [A,CE]4 A>G | F4 F>E | %27
 D D3 [FA]2 | B3 B B2 |[M:2/4] [FA]4 |[M:1/4] A2 |[M:3/4] d4 B>B | A F3 z E | [DF] [DF]3 [CE]2 | %34
[M:7/4] D6 z2 z2 z4 |] %35
V:2
 z2 z2 [D,F,]>[D,A,D] | [D,D]3 [D,D] [D,D]2 | D,4 D,2 | G,4 G,>G, | D,4 D,2 | D,4 E,>E, | F,4 D,2 | %7
 C,2 C,2 D,2 | [A,,A,]4 [A,,A,]>[A,,A,] | [D,A,D]4 [D,A,D]>[E,A,C] | [F,A,] [F,A,]3 [D,D]2 | %11
 [G,DG]3 [G,DG] [G,DG]2 |[M:2/4][K:bass] [D,D]4 |[M:1/4] [D,F,D]2 | %14
[M:3/4] [D,B,D]4 [D,G,D]>[D,G,D] | [D,F,D] [D,A,D]3 [B,,^G,]2 | A,, A,,3 A,,2 | D,6 | D,4 D,2 | %19
 D,6 | F,2- [F,D]2 G,2 | D,4 D,>D, | D,4 E,>E, | F,4 D,2 | C,2 C,2 D,2 | A,,4 A,,2 | %26
 [D,A,D]4 [D,A,D]>[E,A,C] | [F,A,] [F,A,]3 [D,D]2 | [G,DG]3 [G,DG] [G,DG]2 | %29
[M:2/4][K:bass] [D,D]4 |[M:1/4] [D,F,D]2 |[M:3/4] [D,B,D]4 [D,G,D]>[D,G,D] | %32
 [D,F,D] [D,A,D]3 [B,,^G,]2 | [A,,A,] [A,,A,]3 [A,,G,]2 |[M:7/4] [D,F,]6 z2 z2 z4 |] %35
V:3
 x6 | x6 | x6 | x6 | x6 | x6 | x6 | x6 | x6 | x6 | x6 | x6 |[M:2/4] x4 |[M:1/4] x2 |[M:3/4] x6 | %15
 z2 z2 D2 | x6 | x6 | x6 | x6 | x6 | x6 | x6 | x6 | x6 | z2 z2 [A,C]2 | x6 | x6 | x6 |[M:2/4] x4 | %30
[M:1/4] x2 |[M:3/4] x6 | z2 z2 D2 | x6 |[M:7/4] x14 |] %35
V:4
 x6 | x6 | x6 | x6 | x6 | x6 | x6 | x6 | x6 | x6 | x6 | x6 |[M:2/4][K:bass] x4 |[M:1/4] x2 | %14
[M:3/4] x6 | x6 | x6 | x6 | x6 | x6 | A,2 z2 z2 | x6 | x6 | x6 | x6 | x6 | x6 | x6 | x6 | %29
[M:2/4][K:bass] x4 |[M:1/4] x2 |[M:3/4] x6 | x6 | x6 |[M:7/4] x14 |] %35

